!!!SOCIAL_FUNCTION:	songs of the shuffling-feet dance
!!!PDT:	1918

Specific Region: Dakotas, Minnesota, Montana, Nebraska
!!!REG: Dakotas and Montana
!!!LING_GROUP: Siouan
!!!LANG: Tone
!!!OTL@ENG: Song of the Night Dance
!!!ONM: No. 203
**kern
*Imale
*clefF4
*k[f#c#g#d#a#]
*M3/4
*MM100
8F#
8F#
=1
2f#
8f#
8g#
=2||
*M2/4
4f#
8d#
8f#
=3
2c#
=4
8B
8B
8r
8d#
=5
4d#
12d#
12f#
12d#
=6
2c#
=7
4B
12B
12d#
12B
=8
2A
=9
12F#
12F#
12F#
4F#
=10||
*M3/4
2F#
8F#
8F#
=11
2B
12B
12d#
12B
=12
2A
8F#
8F#
=13
4A
8B
8B
8B
8A
=14||
*M2/4
12F#
12F#
12F#
4F#
=15
4.F#
8A
=16
4F#
4F#
=17
12A
12F#
12F#
4F#
=18
2F#
==
*-
!!!CNT: Native American -- Sioux
!!!MRD: 1911/07//-1914///
!!!OCL: Frances Densmore
!!!YOR1: Teton Sioux Music, Bulletin 61,
!!!YOR2: Bureau of American Ethnology, Smithsonian Institution
!!!PPR: Government Printing Office
!!!PPP: Washington, D.C.
!!!PDT: 1918///
!!!ENC: Craig Stuart Sapp
!!!END: 2002/03/25/
!!!EEV: 2002/03/31/
!!!AGN: Dance Song/Song of the Night Dance
!!!MPN@@SIO: Hanghe'-pikte
!!!MPN@ENG: Kills-at-Night and wife
!!!TXO: Teton Sioux
!!!MLC: Standing Rock Reservation, South Dakota, United States of America
!!!ARL: 45.9/-100.7#
!!!catalog: Catalogue No. 601
!!!PPG: 480
!!!EFL: 208/245
!!!VTS: 2915056655
